dist/icons/svgs/hand-solid.svg

<svg xmlns="http://www.w3.org/2000/svg" width="24" height="24" fill="currentcolor" class="icon-hand-solid" viewBox="0 0 24 24">
  <path d="M13.25 3.25V11.375C13.25 11.7266 13.5234 12 13.875 12C14.1875 12 14.5 11.7266 14.5 11.375V4.5C14.5 3.83594 15.0468 3.25 15.75 3.25C16.414 3.25 17 3.83594 17 4.5V11.375C17 11.7266 17.2734 12 17.625 12C17.9375 12 18.25 11.7266 18.25 11.375V7C18.25 6.33594 18.7968 5.75 19.5 5.75C20.164 5.75 20.75 6.33594 20.75 7V15.125C20.75 18.9531 17.664 22 13.875 22H13.0937C10.789 22 8.52341 21.1406 6.84372 19.5L2.46872 15.3203C1.84372 14.7344 1.80466 13.7578 2.42966 13.1328C3.01559 12.5078 3.99216 12.4688 4.61716 13.0547L6.99997 15.3203C6.99997 15.2812 6.99997 15.2031 6.99997 15.125V4.5C6.99997 3.83594 7.54684 3.25 8.24997 3.25C8.91403 3.25 9.49997 3.83594 9.49997 4.5V11.375C9.49997 11.7266 9.77341 12 10.125 12C10.4375 12 10.75 11.7266 10.75 11.375V3.25C10.75 2.58594 11.2968 2 12 2C12.664 2 13.25 2.58594 13.25 3.25Z"/>
</svg>

<svg xmlns="http://www.w3.org/2000/svg" width="24" height="24" fill="currentColor" class="icon-hand-solid" viewBox="0 0 24 24">
  <path d="M13.25 3.25v8.125c0 .352.273.625.625.625a.64.64 0 0 0 .625-.625V4.5c0-.664.547-1.25 1.25-1.25.664 0 1.25.586 1.25 1.25v6.875c0 .352.273.625.625.625a.64.64 0 0 0 .625-.625V7c0-.664.547-1.25 1.25-1.25.664 0 1.25.586 1.25 1.25v8.125A6.86 6.86 0 0 1 13.875 22h-.781c-2.305 0-4.57-.86-6.25-2.5l-4.375-4.18a1.51 1.51 0 0 1-.04-2.187 1.545 1.545 0 0 1 2.188-.078L7 15.32V4.5c0-.664.547-1.25 1.25-1.25.664 0 1.25.586 1.25 1.25v6.875c0 .352.273.625.625.625a.64.64 0 0 0 .625-.625V3.25c0-.664.547-1.25 1.25-1.25.664 0 1.25.586 1.25 1.25"/>
</svg>
